!!!COM:	Bach, Johann Sebastian
!!!CDT:	1685/02/21/-1750/07/28/
!!!OTL@@DE:	Nun lob, mein Seel, den Herren
!!!SCT:	BWV 390
!!!PC#:	296
!!!AGN:	chorale
**kern	**kern	**kern	**kern
*ICvox	*ICvox	*ICvox	*ICvox
*Ibass	*Itenor	*Ialto	*Isoprn
*I"Bass	*I"Tenor	*I"Alto	*I"Soprano
*>[A,A,B]	*>[A,A,B]	*>[A,A,B]	*>[A,A,B]
*>norep[A,B]	*>norep[A,B]	*>norep[A,B]	*>norep[A,B]
*>A	*>A	*>A	*>A
*clefF4	*clefGv2	*clefG2	*clefG2
*k[]	*k[]	*k[]	*k[]
*C:	*C:	*C:	*C:
*M3/4	*M3/4	*M3/4	*M3/4
*MM100	*MM100	*MM100	*MM100
4c	4e	4g	4cc
=1	=1	=1	=1
2A	4e	2a	2cc
.	4f	.	.
4E	4g	4g	4b
=2	=2	=2	=2
2F	2f	4c	2a
.	.	4d	.
4C	4e	8eL	4g
.	.	8fJ	.
=3	=3	=3	=3
4E	2c	4g	4cc
4F	.	4a	2dd
4G	4B	4g	.
=4	=4	=4	=4
2C;	2c;	2g;	2ee;
4c	4c	4g	4ee
=5	=5	=5	=5
4G#	4B	4b	2ee
4F#	4c	4a	.
4E	4d	4g#	4ee
=6	=6	=6	=6
4A	2c	4a	2ee
4GnX	.	8eL	.
.	.	8fnXJ	.
4FnX	4B	4gnX	4dd
=7	=7	=7	=7
4E	2c	4g	8ccL
.	.	.	8ddJ
4F	.	4a	4.dd
4G	4B	4g	.
.	.	.	8cc
=8	=8	=8	=8
2C;	2G;	2e;	2cc;
=:|!	=:|!	=:|!	=:|!
*>B	*>B	*>B	*>B
4C	4G	4e	4cc
=9	=9	=9	=9
2F	4A	2f	4cc
.	4B	.	4dd
4c	4c	4e	4ee
=10	=10	=10	=10
4B	8dL	4g#	2dd
.	8eJ	.	.
4A	4f	4a	.
4G#	4e	4b	4ee
=11	=11	=11	=11
4A	2e	2a	4cc
2E	.	.	8bL
.	.	.	8aJ
.	4d	4g#	4b
=12	=12	=12	=12
2F;	2c;	2a;	2a;
4F	4c	8fL	4a
.	.	8eJ	.
=13	=13	=13	=13
2F#	2A	2d	4dd
.	.	.	4cc
4G	4G	4d	4b
=14	=14	=14	=14
4C	4G	4e	4cc
2D	2F#	4d	2a
.	.	4c	.
=15	=15	=15	=15
2GG;	2G;	2B;	2g;
4E	4B	4e	4g
=16	=16	=16	=16
4A	4c	2e	2cc
4B	4d	.	.
4c	4e	4a	4cc
=17	=17	=17	=17
4B	4d	2g	4dd
4A	4c	.	4ee
4G	4B	4g	4ff
=18	=18	=18	=18
2c	2c	4g	4ee
.	.	4f	4dd
4G#	4B	4e	4ee
=19	=19	=19	=19
2A;	2c;	2e;	2cc;
4F	4f	4a	4cc
=20	=20	=20	=20
4D	2A	2a	2ff
4E	.	.	.
4F	4d	4a	4ff
=21	=21	=21	=21
4G	2d	4b-	4ee
2A	.	4f	4dd
.	4c#	4g	4ee
=22	=22	=22	=22
2D;	2A;	2f;	2dd;
4G	4B	4g	4dd
=23	=23	=23	=23
4C	2c	2g	2ee
4BB	.	.	.
4AA	4c	4a	4ee
=24	=24	=24	=24
4D	2A	4f	2ff
4C	.	2a	.
4BB	4d	.	4ff
=25	=25	=25	=25
4E	4d	2.g	4.gg
4D	4B	.	.
.	.	.	8ffL
4C	4c	.	8ee
.	.	.	8ddJ
=26	=26	=26	=26
2F;	2c;	2a;	2cc;
4c	8cL	4g	4ee
.	8BJ	.	.
=27	=27	=27	=27
2F#	2A	2a	4dd
.	.	.	4cc
4G	4d	4g	4b
=28	=28	=28	=28
4E	4c	2g	4cc
4C	4e	.	2a
4D	8dL	4f#	.
.	8cJ	.	.
=29	=29	=29	=29
2GG;	2B;	2d;	2g;
8GL	4B	4d	4g
8FnXJ	.	.	.
=30	=30	=30	=30
4E	4G	4e	2cc
4D	4d	4f	.
4C	4e	4g	4b
=31	=31	=31	=31
2F	4A	4c	2a
.	4B	4d	.
4E	4c	4e	4g
=32	=32	=32	=32
4D	4B	4f	4dd
2C	4c	4e	4.ee
.	4A	4f#	.
.	.	.	8dd
=33	=33	=33	=33
2G;	2B;	2g;	2dd;
4c	4c	4g	4ee
=34	=34	=34	=34
4A	2c	4fnX	4ff
4G	.	2g	4ee
4F	4B	.	4dd
=35	=35	=35	=35
8EL	2c	4g	8ccL
8FJ	.	.	8ddJ
4G	.	4a	4.dd
4GG	4B	4g	.
.	.	.	8cc
=36	=36	=36	=36
2C;	2G;	2e;	2cc;
==	==	==	==
*-	*-	*-	*-
!!!hum2abc: -Q ''
!!!title: @{PC#}. @{OTL@@DE}
!!!YOR1: 371 vierstimmige Choralges&auml;nge von Johann Sebastian Bach, 
!!!YOR2: 4th ed. by Alfred D&ouml;rffel (Leipzig: Breitkopf und H&auml;rtel, 
!!!YOR2: c.1875). 178 pp. Plate "V.A.10".  reprint: J.S. Bach, 371 Four-Part 
!!!YOR4: Chorales (New York: Associated Music Publishers, Inc., c.1940).
!!!SMS: B&H, 4th ed, Alfred D&ouml;rffel, c.1875, plate V.A.10
!!!EED:  Craig Stuart Sapp
!!!EEV:  2009/05/22
